X:1
T:Christ Is Thy Light
T:Christ Is Thy Light
T:Daniel Brink Towner, 1905
T:Richard Barrow Cadbury, 1876
T:Public Domain Courtesy of the Cyber Hymnal™
T:Public Domain Courtesy of the Cyber Hymnal™
C:Daniel Brink Towner, 1905
Z:Public Domain
Z:Courtesy of the Cyber Hymnal™
%%score ( 1 2 ) ( 3 4 )
L:1/8
Q:1/4=97
M:4/4
K:G
V:1 treble 
V:2 treble 
V:3 bass 
V:4 bass 
V:1
 [DB]2 [DB][DB] [DB]3 [DB] | [EA][EG] [EG]>[CE] [B,D]3 [B,D] | [EG]2 [EG]2 [EG][EG][^DF][EG] | %3
w: 1.~Christ is thy light, O|wan- d’rer, tem- pest tossed! The|bea- con light is point- ing|
w: 2.~Christ is thy strength, O|faint and wea- ry soul! Thy|strife is vain; em- brace with-|
w: 3.~Christ is thy guide, O|pil- grim seek- ing rest! He|gent- ly bids thee o- pen|
w: 4.~Christ is thy hope! O|cling to self no more, No|more to hopes which flat- ter|
w: 5.~Christ is thy king! He|wore the crown for thee, A|crown of thorns, a di- a-|
 [EA]2 [E^A]2 [^DB]4 | [DB]2 [DB][Gc] [Gd]3 [GB] | [EA][EG] [EG]>[CE] [B,D]3 [B,D] | %6
w: to thy rest;|Dark is the night, and|rock- y is the coast, But|
w: out de- lay|The grace that pleads with|thee to make thee whole; Who|
w: wide the door|For Him to en- ter|in and be thy guest; O|
w: and de- cay,|But to the Rock that|stands the tem- pest’s roar, On|
w: dem so meet;|But bow be- fore His|love that made thee free, And|
 [CE][DF][DG][DA] [DB][Ec] !fermata![GB]>[FA] | G6 z2 | [EG]4 [EG]2 [CE]2 | [DG]6 z2 |] %10
w: sure it shines a- bove the bil- low’s|crest;|Christ is thy|light!|
w: by His blood has washed thy sins a-|way;|Christ is thy|strength!|
w: trust and fol- low Him for- ev- er-|more;|Christ is thy|guide!|
w: which thy trem- bling ark will find a|stay;|Christ is thy|hope!|
w: hu- mbly cast thy crown be- fore His|feet;|Christ is thy|king!|
V:2
 x8 | x8 | x8 | x8 | x8 | x8 | x8 | G6 x2 | x8 | x8 |] %10
V:3
 G,2 G,G, G,3 G, | [C,A,][C,C] [C,C]>[C,G,] G,3 G, | [E,B,]2 [E,B,]2 [B,,B,][B,,B,][B,,B,][E,B,] | %3
 [C,A,]2 [C,E,]2 [B,,F,]4 | G,2 G,[G,A,] [G,B,]3 [G,D] | [C,C][C,C] [C,C]>[C,G,] G,3 G, | %6
 [C,G,][C,A,][B,,G,][D,F,] G,[C,G,] !fermata![D,D]>[D,C] | [G,,G,B,]6 z2 | [C,C]4 [C,C]2 [C,G,]2 | %9
 [G,,G,B,]6 z2 |] %10
V:4
 G,2 G,G, G,3 G, | x4 G,3 G, | x8 | x8 | G,2 G, x5 | x4 G,3 G, | x4 G, x3 | x8 | x8 | x8 |] %10

